!!!COM: Palestrina, Giovanni Perluigi da
!!!OPR: Missa Octavi toni
!!!OMD: Benedictus
!!!OTL: First Section
**kern	**kern	**kern	**kern
*Ibass	*Itenor	*Icant	*Icant
!Bassus	!Tenor	!Cantus 2	!Cantus 1
*clefF4	*clefGv2	*clefG2	*clefG2
*k[]	*k[]	*k[]	*k[]
*G:mix	*G:mix	*G:mix	*G:mix
*M4/2	*M4/2	*M4/2	*M4/2
=1	=1	=1	=1
0r	0G	0r	0r
=2	=2	=2	=2
0r	1A	0r	0r
.	[1c	.	.
=3	=3	=3	=3
0r	2c]	0r	0g
.	4B	.	.
.	4A	.	.
.	2B	.	.
.	2c	.	.
=4	=4	=4	=4
0r	2A	0r	1a
.	4F	.	.
.	4G	.	.
.	4A	.	[1cc
.	4B	.	.
.	4c	.	.
.	4d	.	.
=5	=5	=5	=5
0r	1.e	0g	2cc]
.	.	.	4b
.	.	.	4a
.	.	.	2b
.	4d	.	2cc
.	4c	.	.
=6	=6	=6	=6
0r	0e	0g	2b
.	.	.	4e
.	.	.	4f
.	.	.	4g
.	.	.	4a
.	.	.	4b
.	.	.	4cc
=7	=7	=7	=7
0D	2d	0f	2.dd
.	2A	.	.
.	.	.	8cc
.	.	.	8b
.	2.d	.	4a
.	.	.	4g
.	.	.	2a
.	4c	.	.
=8	=8	=8	=8
1E	4B	0e	2.g
.	4A	.	.
.	4G	.	.
.	4F	.	4a
[1G	2E	.	2b
.	2C	.	2cc
=9	=9	=9	=9
2G]	2D	0d	1a
4F#	1A	.	.
4E	.	.	.
2F#	.	.	2r
2G	[2B	.	[2g
=10	=10	=10	=10
2E	2B]	0g	4g]
.	.	.	4f
4C	1c	.	1e
4D	.	.	.
4E	.	.	.
4F	.	.	.
[2G	4B	.	4d
.	4A	.	4c
=11	=11	=11	=11
2G]	2B	0g	2d
2C	2c	.	1e
1E	1G	.	.
.	.	.	2c
=12	=12	=12	=12
0D	2r	0f#	1d
.	2A	.	.
.	2A	.	2r
.	2A	.	2d
=13	=13	=13	=13
1G	1B	0g	2d
.	.	.	2d
2r	1c	.	[1e
2C	.	.	.
=14	=14	=14	=14
2C	2r	0g	1e]
2C	2G	.	.
1E	2G	.	2.e
.	2G	.	.
.	.	.	4d
=15	=15	=15	=15
2.F	2.A	0r	2c
.	.	.	2f
4G	4B	.	.
1A	4c	.	1e
.	4d	.	.
.	4e	.	.
.	4c	.	.
=16	=16	=16	=16
2F	2d	0r	1r
2G	2.e	.	.
2.A	.	.	1c
.	4d	.	.
.	4c	.	.
4G	4B	.	.
=17	=17	=17	=17
2F	4A	0r	2c
.	4B	.	.
2E	1c	.	2c
2F	.	.	2.d
2G	2B	.	.
.	.	.	4e
=18	=18	=18	=18
1D	2A	0r	4f
.	.	.	4g
.	2.d	.	4a
.	.	.	4f
2E	.	.	2g
.	4c	.	.
2F	4c	.	[2a
.	8B	.	.
.	8A	.	.
=19	=19	=19	=19
2G	2B	0r	4a]
.	.	.	4g
2C	2c	.	1g
1D	2A	.	.
.	[2d	.	2f
=20	=20	=20	=20
2.E	4d]	0g	1e
.	4c	.	.
.	2.c	.	.
4F	.	.	.
1G	.	.	1d
.	8B	.	.
.	8A	.	.
.	2B	.	.
=21	=21	=21	=21
2r	2c	0g	0e
2C	2G	.	.
2C	2.c	.	.
2C	.	.	.
.	4B	.	.
=22	=22	=22	=22
2.D	4A	0f	2r
.	4G	.	.
.	2A	.	2a
4E	.	.	.
4F	1D	.	2a
4G	.	.	.
4A	.	.	2a
4F	.	.	.
=23	=23	=23	=23
2G	0r	0e	2b
2.A	.	.	2.cc
4G	.	.	4b
[2G	.	.	4b
.	.	.	8a
.	.	.	8g
=24	=24	=24	=24
2G]	1r	0d	1a
2F#	.	.	.
[1G	2r	.	[1b
.	2d	.	.
=25	=25	=25	=25
1G]	2d	0g	2b]
.	2d	.	2b
1C	2.e	.	2.cc
.	4d	.	4dd
=26	=26	=26	=26
0r	2c	0g	2ee
.	4B	.	1dd
.	4A	.	.
.	2B	.	.
.	2c	.	4cc
.	.	.	4b
=27	=27	=27	=27
1D	2.d	0f#	1a
.	8c	.	.
.	8B	.	.
2D	2A	.	2.dd
2D	2A	.	.
.	.	.	4cc
=28	=28	=28	=28
2.E	1G	0g	4b
.	.	.	4a
.	.	.	4g
4D	.	.	4f
2C	1r	.	2e
4BB	.	.	4d
4AA	.	.	4c
=29	=29	=29	=29
2BB	2r	0g	2d
1C	2G	.	2.e
.	2G	.	.
.	.	.	4f
2E	2G	.	[2g
=30	=30	=30	=30
1D	2.A	0r	2g]
.	.	.	2f
.	4B	.	.
1A	4c	.	2e
.	4d	.	.
.	4e	.	[2a
.	4c	.	.
=31	=31	=31	=31
2F	2d	0r	2a]
2G	1e	.	2g
1A	.	.	2f
.	[2d	.	4e
.	.	.	4d
=32	=32	=32	=32
2.A	2d]	0r	1e
.	2c	.	.
4G	.	.	.
2F#	2A	.	2d
[2G	[2B	.	[2e
=33	=33	=33	=33
4G]	4B]	1g	4e]
4F	4A	.	4d
4E	4G	.	1d
4D	4F#	.	.
2E	2G	1g	.
2E	2G	.	2c#
=34	=34	=34	=34
1D	1A	1f	2d
.	.	.	2a
1r	2r	1e	2b
.	2A	.	2cc#
=35	=35	=35	=35
1G	2.B	1d	4dd
.	.	.	4cc
.	.	.	4b
.	4c	.	4a
2G	2d	1g	4b
.	.	.	4a
2G	2B	.	4g
.	.	.	4f
=36	=36	=36	=36
1C	2.c	1g	4e
.	.	.	4d
.	.	.	2e
.	4B	.	.
1D	4A	1f#	[1d
.	4G	.	.
.	2A	.	.
=37	=37	=37	=37
2.G	0B	0g	1d]
4F	.	.	.
2.E	.	.	[1e
4D	.	.	.
=38	=38	=38	=38
1.C	1.c	[0g	2e]
.	.	.	4d
.	.	.	4c
.	.	.	2e
2C	2c	.	2e
=39	=39	=39	=39
0GG	0B	0g]	0d
*-	*-	*-	*-
!!!CDT: 1525/^1526/-1594/2/2
!!!OCY: Italia
!!!AGN: Mass (Tenor)
!!!AST: renaissance, vocal
!!!ASW: Hymn
!!!PWK: Masses, Book 11
!!!RNB: Cadence finals: A,C
!!!YOR: Le Opere Complete, v. 28, p. 114
!!!YOO: Rome, Italy: Fratelli Scalera
!!!END: 1992//
!!!EED: John Miller
!!!YEC: Copyright 2000, John Miller
!!!YEN: United States of America
!!!YEM: Rights to all derivative electronic formats reserved.
!!!YEM: Refer to licensing agreement for further details.
!!!YEM: This file must be accompanied by the licensing agreement.
!!!YEM: A copy of the licensing agreement may be found at http://www.music-cog.ohio-state.edu/HumdrumDatabases/Palestrina/license.txt
!!!EMD: converted to Humdrum by Bret Aarden
